src/assets/partners/brainstack.svg

<?xml version="1.0" encoding="UTF-8" standalone="no"?>
<svg
   width="425.4556"
   height="53.451"
   viewBox="0 0 425.4556 53.451"
   fill="none"
   version="1.1"
   id="svg12"
   sodipodi:docname="brainstack.svg"
   inkscape:version="1.4.2 (f4327f4, 2025-05-13)"
   xmlns:inkscape="http://www.inkscape.org/namespaces/inkscape"
   xmlns:sodipodi="http://sodipodi.sourceforge.net/DTD/sodipodi-0.dtd"
   xmlns="http://www.w3.org/2000/svg"
   xmlns:svg="http://www.w3.org/2000/svg">
  <sodipodi:namedview
     id="namedview12"
     pagecolor="#ffffff"
     bordercolor="#000000"
     borderopacity="0.25"
     inkscape:showpageshadow="2"
     inkscape:pageopacity="0.0"
     inkscape:pagecheckerboard="0"
     inkscape:deskcolor="#d1d1d1"
     inkscape:export-bgcolor="#00000000"
     inkscape:clip-to-page="false"
     inkscape:zoom="1.8584906"
     inkscape:cx="149.04569"
     inkscape:cy="0.26903553"
     inkscape:window-width="1920"
     inkscape:window-height="1051"
     inkscape:window-x="-9"
     inkscape:window-y="-9"
     inkscape:window-maximized="1"
     inkscape:current-layer="svg12" />
  <g
     clip-path="url(#clip0_2001_21)"
     id="g12"
     transform="translate(-25.7914,-25.7745)">
    <path
       d="m 206.398,44.5808 h -0.716 L 200.64,40.767 h -5.041 c -6.864,0 -12.774,5.4483 -12.774,12.2587 v 11.886 c 0,6.7435 5.91,12.2588 12.774,12.2588 h 5.041 l 5.042,-3.8139 h 0.716 v 3.8139 h 6.935 V 40.767 h -6.935 z m 0,20.5316 -7.904,5.2429 h -2.895 c -3.053,0 -5.844,-2.4518 -5.844,-5.4484 V 53.021 c 0,-2.9966 2.791,-5.4484 5.844,-5.4484 h 2.895 l 7.904,5.2428 v 12.2923 z"
       fill="#ffffff"
       id="path1" />
    <path
       d="m 236.907,27.777 h -7.971 v 7.1497 h 7.971 z"
       fill="#ffffff"
       id="path2" />
    <path
       d="m 236.563,40.7622 h -16.661 v 6.8152 h 9.726 v 22.7779 h -9.726 v 6.8152 h 25.753 v -6.8152 h -9.092 z"
       fill="#ffffff"
       id="path3" />
    <path
       d="m 269.023,40.7622 h -5.042 l -5.752,4.0863 v -4.0863 h -6.936 v 36.4035 h 6.936 v -24.551 l 7.904,-5.0421 h 2.895 c 3.053,0 5.843,2.4518 5.843,5.4484 v 24.1447 h 6.931 V 53.021 c 0,-6.8105 -5.91,-12.2588 -12.774,-12.2588 z"
       fill="#ffffff"
       id="path4" />
    <path
       d="m 294.099,49.9575 c 0,-1.7014 1.541,-2.8628 4.455,-2.8628 h 5.371 c 2.428,0 4.456,1.6345 4.456,3.8138 v 0.6118 h 6.93 v -0.6118 c 0,-5.7207 -5.146,-10.1463 -11.39,-10.1463 h -5.371 c -6.588,0 -11.391,3.68 -11.391,9.1953 0,13.2146 22.395,9.9073 22.395,17.6067 0,1.9738 -1.889,3.269 -5.147,3.269 h -5.719 c -2.981,0 -5.08,-1.5676 -5.08,-3.7469 v -1.3621 h -6.936 v 1.3621 c 0,5.7876 5.285,10.0794 12.011,10.0794 h 5.719 c 7.003,0 12.083,-3.8807 12.083,-9.6015 0,-13.8933 -22.395,-12.0915 -22.395,-17.6067 z"
       fill="#ffffff"
       id="path5" />
    <path
       d="m 333.957,31.911 h -6.935 v 8.856 h -8.51 v 6.8104 h 8.51 v 17.3343 c 0,6.8104 5.843,12.2588 12.774,12.2588 h 6.558 V 70.36 h -6.558 c -3.12,0 -5.844,-2.3848 -5.844,-5.4483 V 47.5774 h 12.402 V 40.767 h -12.402 v -8.856 z"
       fill="#ffffff"
       id="path6" />
    <path
       d="m 374.712,44.5808 -5.753,-3.8138 h -5.041 c -6.864,0 -12.774,5.4483 -12.774,12.2587 v 11.886 c 0,6.7435 5.91,12.2588 12.774,12.2588 h 5.041 l 5.753,-3.8139 v 3.8139 h 6.936 V 40.767 h -6.936 z m 0,20.5316 -7.904,5.2429 h -2.895 c -3.053,0 -5.843,-2.4518 -5.843,-5.4484 V 53.021 c 0,-2.9966 2.79,-5.4484 5.843,-5.4484 h 2.895 l 7.904,5.2428 v 12.2923 z"
       fill="#ffffff"
       id="path7" />
    <path
       d="m 399.468,47.5774 h 4.956 c 2.829,0 5.367,1.969 5.763,4.6215 h 6.973 C 416.731,45.7804 411.074,40.767 404.424,40.767 h -4.956 c -6.864,0 -12.774,5.4483 -12.774,12.2587 v 11.8191 c 0,6.7435 5.91,12.3257 12.774,12.3257 h 4.956 c 6.645,0 12.302,-5.1377 12.732,-11.4989 h -6.979 c -0.41,2.6047 -2.995,4.6215 -5.757,4.6215 h -4.956 c -3.053,0 -5.844,-2.4517 -5.844,-5.4483 V 53.0257 c 0,-2.9966 2.724,-5.4483 5.844,-5.4483 z"
       fill="#ffffff"
       id="path8" />
    <path
       d="m 451.247,40.7622 h -8.181 l -8.944,13.9649 h -5.595 V 31.911 h -6.931 v 45.2595 h 6.931 v -15.633 h 5.595 l 8.944,15.633 h 8.181 L 440.152,58.1347 Z"
       fill="#ffffff"
       id="path9" />
    <path
       d="m 170.461,40.7622 h -1.007 l -7.117,5.2285 -0.715,0.0191 v -5.2476 h -6.936 v 36.4083 h 6.936 v -23.533 l 9.22,-6.0601 h 8.896 v -6.8152 h -8.271 z"
       fill="#ffffff"
       id="path10" />
    <path
       d="M 66.0025,48.1557 63.1977,26.5631 c -2.2705,-0.5162 -4.6364,-0.7886 -7.0596,-0.7886 -2.4231,0 -4.7891,0.2724 -7.0596,0.7886 l -2.8047,21.5926 c -0.2862,2.2175 -1.4453,4.2296 -3.2198,5.5869 L 25.7914,66.9763 c 1.4214,4.6216 3.8685,8.7939 7.0691,12.2492 l 20.0579,-8.3589 c 2.0606,-0.8602 4.3788,-0.8602 6.4395,0 l 20.0578,8.3589 c 3.2007,-3.4553 5.6477,-7.6276 7.0692,-12.2492 L 69.2222,53.7426 c -1.7744,-1.3573 -2.9287,-3.3694 -3.2197,-5.5869 z m 8.9771,21.3202 -15.5883,-9.0184 c -2.0082,-1.1614 -4.5077,-1.1614 -6.5206,0 L 37.2823,69.4759 36.4237,67.9895 52.0121,58.9711 C 54.0202,57.8098 55.27,55.64 55.27,53.3125 V 35.2804 h 1.7172 v 18.0321 c 0,2.3275 1.2497,4.4925 3.2579,5.6586 l 15.5884,9.0184 -0.8587,1.4864 z"
       fill="#ffffff"
       id="path11" />
    <path
       d="m 140.286,50.3732 4.536,-3.0587 V 40.4802 C 144.817,33.4643 139.141,27.777 132.139,27.777 h -18.646 v 49.3935 h 21.25 l 12.889,-8.6887 v -6.8343 c 0,-1.7588 -0.349,-3.4267 -0.983,-4.937 -1.202,-2.8819 -3.539,-5.0851 -6.368,-6.3373 z M 120.538,34.8311 h 11.605 c 3.11,0 5.634,2.5283 5.634,5.6443 0,0 0.004,2.8485 0.004,2.858 v 0.2151 l -7.999,5.3958 h -9.244 z m 20.053,29.8847 -8.028,5.4148 -12.025,-0.0191 V 55.9984 h 14.42 c 3.167,0 5.633,2.4709 5.633,5.6443 z"
       fill="#ffffff"
       id="path12" />
  </g>
  <defs
     id="defs12">
    <clipPath
       id="clip0_2001_21">
      <rect
         width="477"
         height="105"
         fill="#ffffff"
         id="rect12"
         x="0"
         y="0" />
    </clipPath>
  </defs>
</svg>

<svg width="477" height="105" viewBox="0 0 477 105" fill="none" xmlns="http://www.w3.org/2000/svg">
<g clip-path="url(#clip0_2001_21)">
<path d="M206.398 44.5808H205.682L200.64 40.767H195.599C188.735 40.767 182.825 46.2153 182.825 53.0257V64.9117C182.825 71.6552 188.735 77.1705 195.599 77.1705H200.64L205.682 73.3566H206.398V77.1705H213.333V40.767H206.398V44.5808ZM206.398 65.1124L198.494 70.3553H195.599C192.546 70.3553 189.755 67.9035 189.755 64.9069V53.021C189.755 50.0244 192.546 47.5726 195.599 47.5726H198.494L206.398 52.8154V65.1077V65.1124Z" fill="white"/>
<path d="M236.907 27.777H228.936V34.9267H236.907V27.777Z" fill="white"/>
<path d="M236.563 40.7622H219.902V47.5774H229.628V70.3553H219.902V77.1705H245.655V70.3553H236.563V40.7622Z" fill="white"/>
<path d="M269.023 40.7622H263.981L258.229 44.8485V40.7622H251.293V77.1657H258.229V52.6147L266.133 47.5726H269.028C272.081 47.5726 274.871 50.0244 274.871 53.021V77.1657H281.802V53.021C281.802 46.2105 275.892 40.7622 269.028 40.7622H269.023Z" fill="white"/>
<path d="M294.099 49.9575C294.099 48.2561 295.64 47.0947 298.554 47.0947H303.925C306.353 47.0947 308.381 48.7292 308.381 50.9085V51.5203H315.311V50.9085C315.311 45.1878 310.165 40.7622 303.921 40.7622H298.55C291.962 40.7622 287.159 44.4422 287.159 49.9575C287.159 63.1721 309.554 59.8648 309.554 67.5642C309.554 69.538 307.665 70.8332 304.407 70.8332H298.688C295.707 70.8332 293.608 69.2656 293.608 67.0863V65.7242H286.672V67.0863C286.672 72.8739 291.957 77.1657 298.683 77.1657H304.402C311.405 77.1657 316.485 73.285 316.485 67.5642C316.485 53.6709 294.09 55.4727 294.09 49.9575H294.099Z" fill="white"/>
<path d="M333.957 31.911H327.022V40.767H318.512V47.5774H327.022V64.9117C327.022 71.7221 332.865 77.1705 339.796 77.1705H346.354V70.36H339.796C336.676 70.36 333.952 67.9752 333.952 64.9117V47.5774H346.354V40.767H333.952V31.911H333.957Z" fill="white"/>
<path d="M374.712 44.5808L368.959 40.767H363.918C357.054 40.767 351.144 46.2153 351.144 53.0257V64.9117C351.144 71.6552 357.054 77.1705 363.918 77.1705H368.959L374.712 73.3566V77.1705H381.648V40.767H374.712V44.5808ZM374.712 65.1124L366.808 70.3553H363.913C360.86 70.3553 358.07 67.9035 358.07 64.9069V53.021C358.07 50.0244 360.86 47.5726 363.913 47.5726H366.808L374.712 52.8154V65.1077V65.1124Z" fill="white"/>
<path d="M399.468 47.5774H404.424C407.253 47.5774 409.791 49.5464 410.187 52.1989H417.16C416.731 45.7804 411.074 40.767 404.424 40.767H399.468C392.604 40.767 386.694 46.2153 386.694 53.0257V64.8448C386.694 71.5883 392.604 77.1705 399.468 77.1705H404.424C411.069 77.1705 416.726 72.0328 417.156 65.6716H410.177C409.767 68.2763 407.182 70.2931 404.42 70.2931H399.464C396.411 70.2931 393.62 67.8414 393.62 64.8448V53.0257C393.62 50.0291 396.344 47.5774 399.464 47.5774H399.468Z" fill="white"/>
<path d="M451.247 40.7622H443.066L434.122 54.7271H428.527V31.911H421.596V77.1705H428.527V61.5375H434.122L443.066 77.1705H451.247L440.152 58.1347L451.247 40.7622Z" fill="white"/>
<path d="M170.461 40.7622H169.454L162.337 45.9907L161.622 46.0098V40.7622H154.686V77.1705H161.622V53.6375L170.842 47.5774H179.738V40.7622H171.467H170.461Z" fill="white"/>
<path d="M66.0025 48.1557L63.1977 26.5631C60.9272 26.0469 58.5613 25.7745 56.1381 25.7745C53.715 25.7745 51.349 26.0469 49.0785 26.5631L46.2738 48.1557C45.9876 50.3732 44.8285 52.3853 43.054 53.7426L25.7914 66.9763C27.2128 71.5979 29.6599 75.7702 32.8605 79.2255L52.9184 70.8666C54.979 70.0064 57.2972 70.0064 59.3579 70.8666L79.4157 79.2255C82.6164 75.7702 85.0634 71.5979 86.4849 66.9763L69.2222 53.7426C67.4478 52.3853 66.2935 50.3732 66.0025 48.1557ZM74.9796 69.4759L59.3913 60.4575C57.3831 59.2961 54.8836 59.2961 52.8707 60.4575L37.2823 69.4759L36.4237 67.9895L52.0121 58.9711C54.0202 57.8098 55.27 55.64 55.27 53.3125V35.2804H56.9872V53.3125C56.9872 55.64 58.2369 57.805 60.2451 58.9711L75.8335 67.9895L74.9748 69.4759H74.9796Z" fill="white"/>
<path d="M140.286 50.3732L144.822 47.3145V40.4802C144.817 33.4643 139.141 27.777 132.139 27.777H113.493V77.1705H134.743L147.632 68.4818V61.6475C147.632 59.8887 147.283 58.2208 146.649 56.7105C145.447 53.8286 143.11 51.6254 140.281 50.3732H140.286ZM120.538 34.8311H132.143C135.253 34.8311 137.777 37.3594 137.777 40.4754C137.777 40.4754 137.781 43.3239 137.781 43.3334V43.5485L129.782 48.9443H120.538V34.8311ZM140.591 64.7158L132.563 70.1306L120.538 70.1115V55.9984H134.958C138.125 55.9984 140.591 58.4693 140.591 61.6427V64.7158Z" fill="white"/>
</g>
<defs>
<clipPath id="clip0_2001_21">
<rect width="477" height="105" fill="white"/>
</clipPath>
</defs>
</svg>
